assets/icons/functional/system&devices/plugs-connected.svg

<svg width="32" height="32" viewBox="0 0 32 32" fill="none" xmlns="http://www.w3.org/2000/svg"><g id="Icon-PlugsConnected"><g clip-path="url(#clip0_9_2)"><g id="size=md (32px)"><g id="PlugsConnected"><path id="Vector" d="M10 22L3 29" stroke="#101828" stroke-width="2" stroke-linecap="round" stroke-linejoin="round"/><path id="Vector_2" d="M29 3L22 10" stroke="#101828" stroke-width="2" stroke-linecap="round" stroke-linejoin="round"/><path id="Vector_3" d="M16.3825 8.61957L8.62205 16.3801C7.45048 17.5516 7.45048 19.4511 8.62205 20.6227L11.3798 23.3804C12.5513 24.552 14.4508 24.552 15.6224 23.3804L23.3829 15.6199C24.5545 14.4484 24.5545 12.5489 23.3829 11.3773L20.6252 8.61957C19.4536 7.448 17.5541 7.448 16.3825 8.61957Z" stroke="#101828" stroke-width="2" stroke-linecap="round" stroke-linejoin="round"/><path id="Vector_4" d="M11.5 11.5L20.5 20.5" stroke="#101828" stroke-width="2" stroke-linecap="round" stroke-linejoin="round"/><path id="Vector_5" d="M28 20L25 19" stroke="#101828" stroke-width="2" stroke-linecap="round" stroke-linejoin="round"/><path id="Vector_6" d="M7 13L4 12" stroke="#101828" stroke-width="2" stroke-linecap="round" stroke-linejoin="round"/><path id="Vector_7" d="M12 4L13 7" stroke="#101828" stroke-width="2" stroke-linecap="round" stroke-linejoin="round"/><path id="Vector_8" d="M19 25L20 28" stroke="#101828" stroke-width="2" stroke-linecap="round" stroke-linejoin="round"/></g></g></g></g><defs><clipPath id="clip0_9_2"><rect width="32" height="32" rx="5" fill="white"/></clipPath></defs></svg>

<svg xmlns="http://www.w3.org/2000/svg" width="32" height="32" fill="none"><path stroke="#101828" stroke-linecap="round" stroke-linejoin="round" stroke-width="2" d="m10 22-7 7M29 3l-7 7m-5.618-1.38-7.76 7.76a3 3 0 0 0 0 4.243l2.758 2.758a3 3 0 0 0 4.242 0l7.76-7.761a3 3 0 0 0 0-4.243L20.626 8.62a3 3 0 0 0-4.243 0ZM11.5 11.5l9 9M28 20l-3-1M7 13l-3-1m8-8 1 3m6 18 1 3"/></svg>
